X:1
T:E minor    Solomon Howe, 1804
T:Stanza 1: Solomon Howe, 1804 Stanzas 2-3: Isaac Watts, 1709 (Hymn 5, Book 3)   86. 86. (C. M.)
T:Hartsfield
T:Transcribed from The Farmer's Evening Entertainment, 1804.
%%score [ 1 2 3 4 ]
L:1/8
Q:1/4=130
M:2/2
K:G
V:1 treble nm="Tr." snm="Tr."
V:2 treble nm="C." snm="C."
V:3 treble-8 nm="T." snm="T."
V:4 bass nm="B." snm="B."
V:1
"^1. Je –sus be–held the  anx –ious throng   Press on for temporal food,  Ne–glect–ful   of  the  bread  of  life,   The  soul's  im–mor–tal  good." B4 | %1
 e2 dc B2 e2 | B>c B>A B4 || e4 e2 ^d2 | B2 cd e4 || ^d4 B3 B | A3 A B2 cd | e4 B4 | B3 c de B2 | %9
 B8 |: %10
 z4"^1. In sweet advice and tenderest love,  He bade them all beware  Of  sen–sual   ap – pe – tites  and     lusts,   The most destructive snare." e4 | %11
 e2 e2 B2 ^d2 | e2 d2 e4 || B4 e2 d2 | c2 d2 ^d4 || e4 dc B2 | B2 ^d2 d2 c2 | B6 e2 | e2 e2 B2 B2 | %19
 B8 :| %20
V:2
"^2. Let  us   a – dore  th'e –ter –nal  Word,  Tis he our souls  hath  fed:    Thou  art our   living stream, O Lord,  And thou th'immortal bread." E4 | %1
 G2 F2 F2 G2 | G2 F2 G4 || G4 E2 F2 | G2 F2 G4 || F4 F3 F | F3 F E2 EF | G4 G4 | F3 A G2 F2 | %9
 [EG]8 |: %10
 z4"^2. Blest be the Lord that gives his flesh  To  nourish dying men;   And  of – ten  spreads  his  ta – ble   fresh,   Lest we should faint again." G4 | %11
 G2 GA G2 F2 | B2 A2 G4 || G4 B2 A2 | G2 AG F4 || G4 G2 F2 | G2 A2 B2 A>G | F6 G2 | %18
 G2 F2 E2 [DF]2 | [EG]8 :| %20
V:3
"^3. Our souls shall draw their heav'nly breath  While Jesus finds supplies;  Nor shall our gra–ces  sink  to  death,   For  Je–sus   ne – ver   dies." B4 | %1
 B2 Bc d2 B2 | e2 ^d2 e4 || B4 G2 F2 | E2 GA B4 || B4 d3 e | d3 c B2 GA | B4 e4 | d3 c Bc d2 | %9
 e8 |: %10
 z4"^3. Dai –ly  our  mo–rtal flesh decays,  But Christ our life shall come;  His  un–re–sis–ted  power shall  raise  Our bodies from the tomb." B4 | %11
 G2 GF E2 F2 | G2 A2 B4 || e4 g2 f2 | e2 dc B4 || G4 Bc d2 | e2 f2 g2 f>e | d6 B2 | c2 BA G2 F2 | %19
 E8 :| %20
V:4
 E,4 | E,2 B,,2 B,,2 E,2 | E,2 B,,2 E,4 || E,4 E,2 B,,2 | E,2 G,F, E,4 || B,,4 B,,3 B,, | %6
 D,3 E, F,2 G,F, | E,4 E,4 | B,,3 D, E,2 B,,2 | E,8 |: z4 E,4 | E,2 E,2 B,,2 B,,2 | E,2 F,2 E,4 || %13
"^_________________________________________________________________________________\nEdited by B. C. Johnston, 2017\n   Published in 1804 with stanza 1 only, apparently by Solomon Howe, published with this tune. Stanzas\n      2-3 added for this edition." E,4 E,2 F,2 | %14
 G,2 F,E, B,,4 || E,4 E,2 B,,2 | E,2 D,C, B,,2 A,,2 | B,,6 E,2 | G,2 A,2 B,2 B,,2 | E,8 :| %20

